public/icons/svg/music.svg

<?xml version="1.0" encoding="utf-8"?>
<!-- Generator: Adobe Illustrator 16.0.0, SVG Export Plug-In . SVG Version: 6.00 Build 0)  -->
<!DOCTYPE svg PUBLIC "-//W3C//DTD SVG 1.1//EN" "http://www.w3.org/Graphics/SVG/1.1/DTD/svg11.dtd">
<svg version="1.1" id="Layer_1" xmlns:sketch="http://www.bohemiancoding.com/sketch/ns"
	 xmlns="http://www.w3.org/2000/svg" xmlns:xlink="http://www.w3.org/1999/xlink" x="0px" y="0px" width="90px" height="90px"
	 viewBox="0 0 90 90" enable-background="new 0 0 90 90" xml:space="preserve">
<title>noun_79685_cc</title>
<desc>Created with Sketch.</desc>
<g id="Page-1" sketch:type="MSPage">
	<g id="noun_79685_cc" transform="translate(-1.000000, -1.000000)" sketch:type="MSLayerGroup">
		<path id="Shape" sketch:type="MSShapeGroup" fill="#FFFFFF" d="M76.325,1.011h1.903c1.099,0,0.979-0.088,0.979,1.009v1.679
			c0,0.705,0.577,1.283,1.283,1.283h5.238c0.705,0,1.282-0.577,1.282-1.283V1.766c0-0.804-0.104-0.754,0.705-0.754h2.542
			c0.829,0,0.73-0.055,0.73,0.771v86.894c0,2.697,0.097,2.302-2.586,2.302h-2.627h-0.029h-5.238h-0.033h-2.808
			c-2.374,0-2.332,0.383-2.332-2.009c0-0.157-0.015-0.308-0.046-0.448V86.99c0-2.149-1.758-3.907-3.907-3.907H20.593
			c-2.149,0-3.907,1.758-3.907,3.907v2.566v0.988c-0.044,0.477-0.281,0.432-1.336,0.432h-1.283c-1.46,0-1.261,0.07-1.261-1.384
			v-1.286c0-0.705-0.577-1.283-1.283-1.283H6.285c-0.705,0-1.283,0.578-1.283,1.283v0.883c0,1.555,0.401,1.787-1.193,1.787H2.453
			c-1.824,0-1.416-0.146-1.41-1.937c0.124-28.485-0.008-57.557-0.01-86.012c0-2.284-0.144-2.017,2.149-2.017h2.872
			c0.071,0.012,0.14,0.018,0.213,0.018h5.238c0.073,0,0.147-0.005,0.218-0.018h3.11c1.507,0,1.804-0.097,1.853,0.653v1.237v2.012
			c0,2.149,1.758,3.907,3.907,3.907h50.791c2.149,0,3.907-1.758,3.907-3.907v-2.47c0.031-0.188,0.046-0.388,0.046-0.607
			C75.336,0.839,75.338,1.011,76.325,1.011L76.325,1.011L76.325,1.011z M51.85,55.643c-0.054-6.857,0.039-13.664,0.027-20.557
			c1.112,0.752,2.354,1.498,3.538,2.127c0.634,0.336,1.212,0.638,1.778,0.924c1.576,0.795,3.111,1.478,4.779,2.274
			c0.354,0.168,0.713,0.332,1.034,0.39c0.58,0.105,0.58-0.615,0.593-1.349c0-2.56,0.025-4.792,0-7.354
			c-0.006-0.656-0.029-0.914-0.548-1.27c-1.51-0.863-3.021-1.727-4.53-2.591c-1.705-0.975-3.151-1.967-4.697-3.18
			c-1.51-1.182-3.016-2.364-4.525-3.547c-0.814-0.551-1.341-0.249-1.337,0.796c0.009,2.595,0.017,5.192,0.024,7.787l-0.049,24.21
			c-2.075-1.546-4.816-2.49-7.819-2.49c-6.474,0-11.724,4.369-11.724,9.758s5.25,9.758,11.724,9.758
			c4.349,0,8.296-1.876,10.171-4.901C52.213,63.322,51.871,58.486,51.85,55.643L51.85,55.643L51.85,55.643z M20.688,12.768
			c-2.202,0-4.002,1.8-4.002,4.003V75.21c0,2.202,1.806,4.003,4.002,4.003h50.646c2.197,0,4.003-1.806,4.003-4.003V16.77
			c0-2.197-1.801-4.003-4.003-4.003L20.688,12.768L20.688,12.768L20.688,12.768z M80.509,59.699c-0.704,0-1.282,0.576-1.282,1.283
			v5.237c0,0.706,0.576,1.283,1.282,1.283h5.238c0.705,0,1.282-0.577,1.282-1.283v-5.237c0-0.707-0.576-1.283-1.282-1.283H80.509
			L80.509,59.699z M80.555,75.316c-0.705,0-1.283,0.576-1.283,1.283v5.237c0,0.706,0.578,1.283,1.283,1.283h5.238
			c0.706,0,1.283-0.577,1.283-1.283V76.6c0-0.707-0.577-1.283-1.283-1.283H80.555L80.555,75.316z M80.491,28.457
			c-0.705,0-1.283,0.577-1.283,1.283v5.238c0,0.706,0.577,1.283,1.283,1.283h5.237c0.705,0,1.283-0.577,1.283-1.283V29.74
			c0-0.706-0.576-1.283-1.283-1.283H80.491L80.491,28.457z M80.536,44.074c-0.706,0-1.283,0.577-1.283,1.283v5.238
			c0,0.706,0.577,1.283,1.283,1.283h5.237c0.705,0,1.283-0.577,1.283-1.283v-5.238c0-0.706-0.576-1.283-1.283-1.283H80.536
			L80.536,44.074z M80.536,12.795c-0.706,0-1.283,0.577-1.283,1.283v5.238c0,0.705,0.577,1.283,1.283,1.283h5.237
			c0.705,0,1.283-0.577,1.283-1.283v-5.238c0-0.706-0.576-1.283-1.283-1.283H80.536L80.536,12.795z M6.285,55.746
			c-0.705,0-1.283,0.577-1.283,1.283v5.238c0,0.705,0.577,1.282,1.283,1.282h5.238c0.706,0,1.283-0.577,1.283-1.282v-5.238
			c0-0.706-0.577-1.283-1.283-1.283H6.285L6.285,55.746L6.285,55.746z M6.33,71.363c-0.705,0-1.283,0.576-1.283,1.283v5.237
			c0,0.706,0.577,1.283,1.283,1.283h5.238c0.705,0,1.283-0.577,1.283-1.283v-5.237c0-0.707-0.577-1.283-1.283-1.283H6.33
			L6.33,71.363z M6.266,24.504c-0.706,0-1.283,0.577-1.283,1.283v5.238c0,0.706,0.577,1.283,1.283,1.283h5.238
			c0.706,0,1.283-0.577,1.283-1.283v-5.238c0-0.706-0.577-1.283-1.283-1.283H6.266L6.266,24.504L6.266,24.504z M6.311,40.121
			c-0.705,0-1.283,0.577-1.283,1.283v5.239c0,0.705,0.577,1.282,1.283,1.282h5.238c0.706,0,1.283-0.577,1.283-1.282v-5.239
			c0-0.706-0.577-1.283-1.283-1.283H6.311L6.311,40.121z M6.311,8.843c-0.705,0-1.283,0.577-1.283,1.283v5.238
			c0,0.705,0.577,1.283,1.283,1.283h5.238c0.706,0,1.283-0.577,1.283-1.283v-5.238c0-0.706-0.577-1.283-1.283-1.283H6.311
			L6.311,8.843z"/>
	</g>
</g>
</svg>

<?xml version="1.0" encoding="UTF-8" standalone="no"?>
<svg width="90px" height="90px" viewBox="0 0 90 90" version="1.1" xmlns="http://www.w3.org/2000/svg" xmlns:xlink="http://www.w3.org/1999/xlink" xmlns:sketch="http://www.bohemiancoding.com/sketch/ns">
    <!-- Generator: Sketch 3.3.3 (12081) - http://www.bohemiancoding.com/sketch -->
    <title>noun_79685_cc</title>
    <desc>Created with Sketch.</desc>
    <defs></defs>
    <g id="Page-1" stroke="none" stroke-width="1" fill="none" fill-rule="evenodd" sketch:type="MSPage">
        <g id="noun_79685_cc" sketch:type="MSLayerGroup" transform="translate(-1.000000, -1.000000)" fill="#000000">
            <path d="M76.325,1.011 L78.229,1.011 C79.327,1.011 79.207,0.923 79.207,2.02 L79.207,3.699 C79.207,4.404 79.784,4.982 80.49,4.982 L85.728,4.982 C86.433,4.982 87.011,4.405 87.011,3.699 L87.011,1.766 C87.011,0.962 86.906,1.012 87.716,1.012 L90.258,1.012 C91.087,1.012 90.988,0.957 90.988,1.783 L90.988,88.677 C90.988,91.374 91.085,90.978 88.402,90.978 L85.776,90.978 L85.746,90.978 L80.508,90.978 L80.475,90.978 L77.667,90.978 C75.293,90.978 75.335,91.361 75.335,88.97 C75.335,88.813 75.321,88.662 75.289,88.521 L75.289,86.99 C75.289,84.841 73.531,83.083 71.382,83.083 L20.593,83.083 C18.444,83.083 16.686,84.841 16.686,86.99 L16.686,89.557 L16.686,90.545 C16.642,91.021 16.405,90.977 15.35,90.977 L14.067,90.977 C12.607,90.977 12.806,91.047 12.806,89.593 L12.806,88.307 C12.806,87.601 12.229,87.024 11.523,87.024 L6.285,87.024 C5.58,87.024 5.002,87.601 5.002,88.307 L5.002,89.19 C5.002,90.744 5.403,90.977 3.809,90.977 L2.453,90.977 C0.629,90.977 1.037,90.83 1.043,89.04 C1.167,60.555 1.035,31.483 1.033,3.028 C1.033,0.744 0.889,1.011 3.182,1.011 L6.054,1.011 C6.125,1.023 6.194,1.029 6.267,1.029 L11.505,1.029 C11.578,1.029 11.652,1.024 11.723,1.011 L14.833,1.011 C16.34,1.011 16.637,0.914 16.686,1.664 L16.686,2.901 L16.686,4.913 C16.686,7.062 18.444,8.82 20.593,8.82 L71.384,8.82 C73.533,8.82 75.291,7.062 75.291,4.913 L75.291,2.443 C75.322,2.255 75.337,2.055 75.337,1.836 C75.336,0.839 75.338,1.011 76.325,1.011 L76.325,1.011 L76.325,1.011 Z M51.849,55.642 C51.796,48.785 51.889,41.979 51.877,35.086 C52.989,35.838 54.23,36.584 55.415,37.213 C56.049,37.549 56.627,37.851 57.194,38.137 C58.769,38.932 60.305,39.615 61.973,40.411 C62.326,40.579 62.685,40.743 63.007,40.801 C63.587,40.906 63.587,40.186 63.599,39.452 C63.599,36.892 63.625,34.66 63.599,32.098 C63.594,31.442 63.57,31.184 63.052,30.828 C61.542,29.965 60.031,29.101 58.522,28.237 C56.816,27.262 55.37,26.27 53.824,25.057 C52.315,23.875 50.808,22.693 49.299,21.51 C48.484,20.959 47.958,21.261 47.962,22.306 C47.97,24.901 47.979,27.498 47.987,30.093 L47.937,54.303 C45.863,52.757 43.121,51.813 40.118,51.813 C33.644,51.813 28.394,56.182 28.394,61.57 C28.394,66.959 33.644,71.328 40.118,71.328 C44.467,71.328 48.414,69.452 50.289,66.427 C52.213,63.322 51.871,58.487 51.849,55.642 L51.849,55.642 L51.849,55.642 Z M20.688,12.768 C18.486,12.768 16.686,14.568 16.686,16.771 L16.686,75.21 C16.686,77.412 18.492,79.213 20.688,79.213 L71.334,79.213 C73.531,79.213 75.337,77.407 75.337,75.21 L75.337,16.77 C75.337,14.573 73.536,12.767 71.334,12.767 L20.688,12.767 L20.688,12.768 L20.688,12.768 Z M80.509,59.699 C79.804,59.699 79.226,60.276 79.226,60.982 L79.226,66.22 C79.226,66.926 79.803,67.503 80.509,67.503 L85.747,67.503 C86.452,67.503 87.03,66.926 87.03,66.22 L87.03,60.982 C87.03,60.276 86.453,59.699 85.747,59.699 L80.509,59.699 L80.509,59.699 Z M80.555,75.316 C79.849,75.316 79.272,75.893 79.272,76.599 L79.272,81.837 C79.272,82.543 79.849,83.12 80.555,83.12 L85.793,83.12 C86.499,83.12 87.076,82.543 87.076,81.837 L87.076,76.599 C87.076,75.893 86.499,75.316 85.793,75.316 L80.555,75.316 L80.555,75.316 Z M80.491,28.457 C79.786,28.457 79.208,29.034 79.208,29.74 L79.208,34.978 C79.208,35.684 79.785,36.261 80.491,36.261 L85.729,36.261 C86.434,36.261 87.012,35.684 87.012,34.978 L87.012,29.74 C87.012,29.034 86.435,28.457 85.729,28.457 L80.491,28.457 L80.491,28.457 Z M80.536,44.074 C79.83,44.074 79.253,44.651 79.253,45.357 L79.253,50.595 C79.253,51.301 79.83,51.878 80.536,51.878 L85.774,51.878 C86.479,51.878 87.057,51.301 87.057,50.595 L87.057,45.357 C87.057,44.651 86.48,44.074 85.774,44.074 L80.536,44.074 L80.536,44.074 Z M80.536,12.795 C79.83,12.795 79.253,13.372 79.253,14.078 L79.253,19.316 C79.253,20.021 79.83,20.599 80.536,20.599 L85.774,20.599 C86.479,20.599 87.057,20.022 87.057,19.316 L87.057,14.078 C87.057,13.372 86.48,12.795 85.774,12.795 L80.536,12.795 L80.536,12.795 Z M6.285,55.746 C5.58,55.746 5.002,56.323 5.002,57.029 L5.002,62.267 C5.002,62.973 5.579,63.55 6.285,63.55 L11.523,63.55 C12.229,63.55 12.806,62.973 12.806,62.267 L12.806,57.029 C12.806,56.323 12.229,55.746 11.523,55.746 L6.285,55.746 L6.285,55.746 L6.285,55.746 Z M6.33,71.363 C5.625,71.363 5.047,71.94 5.047,72.646 L5.047,77.884 C5.047,78.59 5.624,79.167 6.33,79.167 L11.568,79.167 C12.273,79.167 12.851,78.59 12.851,77.884 L12.851,72.646 C12.851,71.94 12.274,71.363 11.568,71.363 L6.33,71.363 L6.33,71.363 Z M6.266,24.504 C5.56,24.504 4.983,25.081 4.983,25.787 L4.983,31.025 C4.983,31.731 5.56,32.308 6.266,32.308 L11.504,32.308 C12.21,32.308 12.787,31.731 12.787,31.025 L12.787,25.787 C12.787,25.081 12.21,24.504 11.504,24.504 L6.266,24.504 L6.266,24.504 L6.266,24.504 Z M6.311,40.121 C5.606,40.121 5.028,40.698 5.028,41.404 L5.028,46.642 C5.028,47.348 5.605,47.925 6.311,47.925 L11.549,47.925 C12.255,47.925 12.832,47.348 12.832,46.642 L12.832,41.404 C12.832,40.698 12.255,40.121 11.549,40.121 L6.311,40.121 L6.311,40.121 Z M6.311,8.843 C5.606,8.843 5.028,9.42 5.028,10.126 L5.028,15.364 C5.028,16.069 5.605,16.647 6.311,16.647 L11.549,16.647 C12.255,16.647 12.832,16.07 12.832,15.364 L12.832,10.126 C12.832,9.42 12.255,8.843 11.549,8.843 L6.311,8.843 L6.311,8.843 Z" id="Shape" sketch:type="MSShapeGroup"></path>
        </g>
    </g>
</svg>
